X: 54
T: Blue and Buff
R: reel
M: 2/4
L: 1/8
Z: 2012 John Chambers <jc:trillian.mit.edu>
N: The ties in bars 8 & 16 have a dot, making them look like fermata signs.
B: Saml. Ann & Peter Thompson "Twenty Four Country Dances for the Year 1791", London 1791, p.27 #2
K: D
% - - - - - - - - - - - - - - - - - - - - - - - - -
|:\
Addd | fddd | gfee | (f/g/a) (f/g/a) |\
Addd | fddd | edef | d2-d2 :|
afga | gefg | fdef | ec A2 |\
afga | gefg | fdfb | a2-a2 "D.C."y|]
% - - - - - - - - Dance description - - - - - - - -
%%begintext align
%% 1st Cu: Allemande .|.
%% 2d Cu: do the same :|.
%% Promenade 3 Cu: round :|.
%% 1st and 2d Cu: Poussett :|:
%%endtext

%%sep 1 1 500
%%sep 1 1 500
